Newaita-dark/apps/48/terminator.svg

<svg height="48" viewBox="0 0 48 48" width="48" xmlns="http://www.w3.org/2000/svg" xmlns:xlink="http://www.w3.org/1999/xlink"><linearGradient id="a" gradientUnits="userSpaceOnUse" x1="22.822488" x2="22.822488" y1="42.0509015" y2="44.03546750005"><stop offset="0" stop-opacity=".27451"/><stop offset="1" stop-opacity="0"/></linearGradient><linearGradient id="b"><stop offset="0" stop-opacity=".313726"/><stop offset=".222222" stop-opacity=".27451"/><stop offset="1" stop-opacity="0"/></linearGradient><radialGradient id="c" cx="450.908936" cy="189.579361" gradientTransform="matrix(.00000026 -.117199 -.210958 -.00000015 80.180533 95.392999)" gradientUnits="userSpaceOnUse" r="21.166656" xlink:href="#b"/><radialGradient id="d" cx="450.908936" cy="189.579361" gradientTransform="matrix(-.00000026 .117199 .210958 .00000015 -32.550981 -11.291218)" gradientUnits="userSpaceOnUse" r="21.166656" xlink:href="#b"/><radialGradient id="e" cx="450.908936" cy="189.579361" gradientTransform="matrix(-.00000026 -.117199 .210958 -.00000015 -32.550981 95.392999)" gradientUnits="userSpaceOnUse" r="21.166656" xlink:href="#b"/><radialGradient id="f" cx="450.908936" cy="189.579361" gradientTransform="matrix(.00000026 .117199 -.210958 .00000015 80.18053 -11.291219)" gradientUnits="userSpaceOnUse" r="21.166656" xlink:href="#b"/><linearGradient id="g" gradientTransform="matrix(.10811 0 0 .285939 -7.36381 46.764738)" gradientUnits="userSpaceOnUse" x1="307.62677" x2="305.954529" y1="-22.391003" y2="-141.414581"><stop offset="0" stop-color="#424242"/><stop offset="1" stop-color="#616161"/></linearGradient><linearGradient id="h"><stop offset="0" stop-color="#ef5350"/><stop offset="1" stop-color="#e57373"/></linearGradient><linearGradient id="i" gradientTransform="matrix(-.10811 0 0 .285939 54.993357 46.764738)" gradientUnits="userSpaceOnUse" x1="306.752686" x2="305.954529" xlink:href="#h" y1="-16.485477" y2="-141.414581"/><linearGradient id="j"><stop offset="0" stop-color="#f44336"/><stop offset="1" stop-color="#ef5350"/></linearGradient><linearGradient id="k" gradientTransform="matrix(.10811 0 0 .285939 -7.363809 46.764736)" gradientUnits="userSpaceOnUse" x1="306.752686" x2="305.954529" xlink:href="#j" y1="-16.485477" y2="-141.414581"/><linearGradient id="l" gradientTransform="matrix(.10811 0 0 -.285939 -7.363809 1.614857)" gradientUnits="userSpaceOnUse" x1="251.682175" x2="251.682175" xlink:href="#h" y1="-141.414673" y2="-16.485561"/><linearGradient id="m" gradientTransform="matrix(-.10811 0 0 -.285939 54.993357 1.614858)" gradientUnits="userSpaceOnUse" x1="260.860596" x2="260.860596" xlink:href="#j" y1="-141.414673" y2="-16.485558"/><path d="m6.945312 42.160156h33.738282v1.875h-33.738282zm0 0" fill="url(#a)"/><path d="m40.683594 42.050781h3.96875v-1.984375h-3.96875zm0 0" fill="url(#c)"/><path d="m6.945312 42.050781h-3.96875v1.984375h3.96875zm0 0" fill="url(#d)"/><path d="m6.945312 42.050781h-3.96875v-1.984375h3.96875zm0 0" fill="url(#e)"/><path d="m40.683594 42.050781h3.96875v1.984375h-3.96875zm0 0" fill="url(#f)"/><path d="m4.960938 6.328125h37.707031c1.097656 0 1.984375.839844 1.984375 1.875v31.972656c0 1.035157-.886719 1.875-1.984375 1.875h-37.707031c-1.09375 0-1.984376-.839843-1.984376-1.875v-31.972656c0-1.035156.890626-1.875 1.984376-1.875zm0 0" fill="url(#g)"/><path d="m42.667969 6.328125c1.101562 0 1.984375.835937 1.984375 1.875v15.988281h-20.835938v-17.863281zm0 0" fill="url(#i)"/><path d="m4.960938 6.328125c-1.097657 0-1.984376.835937-1.984376 1.875v15.988281h20.839844v-17.863281zm0 0" fill="url(#k)"/><path d="m4.960938 42.050781c-1.097657 0-1.984376-.835937-1.984376-1.875v-15.984375h20.839844v17.859375zm0 0" fill="url(#l)"/><path d="m12.984375 11.785156c-.386719-.386718-1.015625-.386718-1.402344 0-.390625.390625-.390625 1.015625 0 1.40625l2.804688 2.804688-2.804688 2.808594c-.390625.386718-.390625 1.011718 0 1.402343.386719.386719 1.015625.386719 1.402344 0l3.507813-3.507812c.023437-.027344.046874-.050781.070312-.078125.316406-.390625.296875-.960938-.070312-1.328125zm0 0" fill="#ececec" fill-opacity=".588235"/><path d="m4.960938 6.328125c-1.097657 0-1.984376.835937-1.984376 1.875v.496094c0-1.039063.886719-1.875 1.984376-1.875h37.707031c1.101562 0 1.984375.835937 1.984375 1.875v-.496094c0-1.039063-.882813-1.875-1.984375-1.875zm0 0" fill="#fff" fill-opacity=".392157"/><path d="m42.667969 42.050781c1.101562 0 1.984375-.835937 1.984375-1.875v-15.984375h-20.835938v17.859375zm0 0" fill="url(#m)"/><path d="m4.960938 42.066406c-1.097657 0-1.984376-.835937-1.984376-1.875v-.496094c0 1.039063.886719 1.875 1.984376 1.875h37.707031c1.101562 0 1.984375-.835937 1.984375-1.875v.496094c0 1.039063-.882813 1.875-1.984375 1.875zm0 0" fill-opacity=".235294"/><path d="m5.953125 8.195312c-.613281 0-1.109375.496094-1.109375 1.109376v27.785156c0 .613281.496094 1.109375 1.109375 1.109375h35.722656c.613281 0 1.109375-.496094 1.109375-1.109375v-27.785156c0-.613282-.496094-1.109376-1.109375-1.109376zm0 .234376h35.722656c.488281 0 .875.390624.875.875v27.785156c0 .488281-.386719.875-.875.875h-35.722656c-.484375 0-.875-.386719-.875-.875v-27.785156c0-.484376.390625-.875.875-.875zm0 0" fill="#212121"/><path d="m5.953125 8.445312c-.476563 0-.859375.386719-.859375.859376v27.785156c0 .476562.382812.859375.859375.859375h35.722656c.476563 0 .863281-.382813.863281-.859375v-27.785156c0-.472657-.386718-.859376-.863281-.859376zm0 .234376h35.722656c.347657 0 .628907.277343.628907.625v27.785156c0 .347656-.28125.625-.628907.625h-35.722656c-.347656 0-.625-.277344-.625-.625v-27.785156c0-.347657.277344-.625.625-.625zm0 0" fill="#dedede" fill-opacity=".705882"/><path d="m52.911614-147.506445h402.169928c11.707215 0 21.164645 8.957478 21.164645 19.99809v341.009102c0 11.040612-9.45743 19.99809-21.164645 19.99809h-402.169928c-11.665553 0-21.164646-8.957478-21.164646-19.99809v-341.009102c0-11.040612 9.499093-19.99809 21.164646-19.99809zm0 0" fill="none" stroke="#212121" stroke-linecap="round" stroke-width="3" transform="matrix(.093759 0 0 .093759 0 20.158175)"/><path d="m33.328125 27.917969c-.390625-.386719-1.015625-.386719-1.40625 0-.386719.390625-.386719 1.015625 0 1.402343l2.808594 2.808594-2.808594 2.804688c-.386719.390625-.386719 1.015625 0 1.40625.390625.386718 1.015625.386718 1.40625 0l3.507813-3.511719c.023437-.023437.046874-.046875.066406-.074219.320312-.390625.296875-.964844-.066406-1.328125zm0 0" fill="#ececec" fill-opacity=".588235"/></svg>

<?xml version="1.0" encoding="UTF-8"?>
<svg xmlns="http://www.w3.org/2000/svg" xmlns:xlink="http://www.w3.org/1999/xlink" width="48px" height="48px" viewBox="0 0 48 48" version="1.1">
<defs>
<linearGradient id="linear0" gradientUnits="userSpaceOnUse" x1="254" y1="233.5" x2="254" y2="254.666672" gradientTransform="matrix(0.093759,0,0,0.093759,-0.992298,20.158175)">
<stop offset="0" style="stop-color:rgb(0%,0%,0%);stop-opacity:0.27451;"/>
<stop offset="1" style="stop-color:rgb(0%,0%,0%);stop-opacity:0;"/>
</linearGradient>
<radialGradient id="radial0" gradientUnits="userSpaceOnUse" cx="450.908936" cy="189.579361" fx="450.908936" fy="189.579361" r="21.166656" gradientTransform="matrix(0.000000261256,-0.117199,-0.210958,-0.000000152308,80.180533,95.392999)">
<stop offset="0" style="stop-color:rgb(0%,0%,0%);stop-opacity:0.313726;"/>
<stop offset="0.222222" style="stop-color:rgb(0%,0%,0%);stop-opacity:0.27451;"/>
<stop offset="1" style="stop-color:rgb(0%,0%,0%);stop-opacity:0;"/>
</radialGradient>
<radialGradient id="radial1" gradientUnits="userSpaceOnUse" cx="450.908936" cy="189.579361" fx="450.908936" fy="189.579361" r="21.166656" gradientTransform="matrix(-0.000000261256,0.117199,0.210958,0.000000152308,-32.550981,-11.291218)">
<stop offset="0" style="stop-color:rgb(0%,0%,0%);stop-opacity:0.313726;"/>
<stop offset="0.222222" style="stop-color:rgb(0%,0%,0%);stop-opacity:0.27451;"/>
<stop offset="1" style="stop-color:rgb(0%,0%,0%);stop-opacity:0;"/>
</radialGradient>
<radialGradient id="radial2" gradientUnits="userSpaceOnUse" cx="450.908936" cy="189.579361" fx="450.908936" fy="189.579361" r="21.166656" gradientTransform="matrix(-0.000000261256,-0.117199,0.210958,-0.000000152308,-32.550981,95.392999)">
<stop offset="0" style="stop-color:rgb(0%,0%,0%);stop-opacity:0.313726;"/>
<stop offset="0.222222" style="stop-color:rgb(0%,0%,0%);stop-opacity:0.27451;"/>
<stop offset="1" style="stop-color:rgb(0%,0%,0%);stop-opacity:0;"/>
</radialGradient>
<radialGradient id="radial3" gradientUnits="userSpaceOnUse" cx="450.908936" cy="189.579361" fx="450.908936" fy="189.579361" r="21.166656" gradientTransform="matrix(0.000000261256,0.117199,-0.210958,0.000000152308,80.18053,-11.291219)">
<stop offset="0" style="stop-color:rgb(0%,0%,0%);stop-opacity:0.313726;"/>
<stop offset="0.222222" style="stop-color:rgb(0%,0%,0%);stop-opacity:0.27451;"/>
<stop offset="1" style="stop-color:rgb(0%,0%,0%);stop-opacity:0;"/>
</radialGradient>
<linearGradient id="linear1" gradientUnits="userSpaceOnUse" x1="307.62677" y1="-22.391003" x2="305.954529" y2="-141.414581" gradientTransform="matrix(0.10811,0,0,0.285939,-7.36381,46.764738)">
<stop offset="0" style="stop-color:rgb(25.882354%,25.882354%,25.882354%);stop-opacity:1;"/>
<stop offset="1" style="stop-color:rgb(38.039216%,38.039216%,38.039216%);stop-opacity:1;"/>
</linearGradient>
<linearGradient id="linear2" gradientUnits="userSpaceOnUse" x1="306.752686" y1="-16.485477" x2="305.954529" y2="-141.414581" gradientTransform="matrix(-0.10811,0,0,0.285939,54.993357,46.764738)">
<stop offset="0" style="stop-color:rgb(93.725491%,32.549021%,31.37255%);stop-opacity:1;"/>
<stop offset="1" style="stop-color:rgb(89.803922%,45.09804%,45.09804%);stop-opacity:1;"/>
</linearGradient>
<linearGradient id="linear3" gradientUnits="userSpaceOnUse" x1="306.752686" y1="-16.485477" x2="305.954529" y2="-141.414581" gradientTransform="matrix(0.10811,0,0,0.285939,-7.363809,46.764736)">
<stop offset="0" style="stop-color:rgb(95.686275%,26.274511%,21.176471%);stop-opacity:1;"/>
<stop offset="1" style="stop-color:rgb(93.725491%,32.549021%,31.37255%);stop-opacity:1;"/>
</linearGradient>
<linearGradient id="linear4" gradientUnits="userSpaceOnUse" x1="251.682175" y1="-141.414673" x2="251.682175" y2="-16.485561" gradientTransform="matrix(0.10811,0,0,-0.285939,-7.363809,1.614857)">
<stop offset="0" style="stop-color:rgb(93.725491%,32.549021%,31.37255%);stop-opacity:1;"/>
<stop offset="1" style="stop-color:rgb(89.803922%,45.09804%,45.09804%);stop-opacity:1;"/>
</linearGradient>
<linearGradient id="linear5" gradientUnits="userSpaceOnUse" x1="260.860596" y1="-141.414673" x2="260.860596" y2="-16.485558" gradientTransform="matrix(-0.10811,0,0,-0.285939,54.993357,1.614858)">
<stop offset="0" style="stop-color:rgb(95.686275%,26.274511%,21.176471%);stop-opacity:1;"/>
<stop offset="1" style="stop-color:rgb(93.725491%,32.549021%,31.37255%);stop-opacity:1;"/>
</linearGradient>
</defs>
<g id="surface1">
<path style=" stroke:none;fill-rule:nonzero;fill:url(#linear0);" d="M 6.945312 42.160156 L 40.683594 42.160156 L 40.683594 44.035156 L 6.945312 44.035156 Z M 6.945312 42.160156 "/>
<path style=" stroke:none;fill-rule:nonzero;fill:url(#radial0);" d="M 40.683594 42.050781 L 44.652344 42.050781 L 44.652344 40.066406 L 40.683594 40.066406 Z M 40.683594 42.050781 "/>
<path style=" stroke:none;fill-rule:nonzero;fill:url(#radial1);" d="M 6.945312 42.050781 L 2.976562 42.050781 L 2.976562 44.035156 L 6.945312 44.035156 Z M 6.945312 42.050781 "/>
<path style=" stroke:none;fill-rule:nonzero;fill:url(#radial2);" d="M 6.945312 42.050781 L 2.976562 42.050781 L 2.976562 40.066406 L 6.945312 40.066406 Z M 6.945312 42.050781 "/>
<path style=" stroke:none;fill-rule:nonzero;fill:url(#radial3);" d="M 40.683594 42.050781 L 44.652344 42.050781 L 44.652344 44.035156 L 40.683594 44.035156 Z M 40.683594 42.050781 "/>
<path style=" stroke:none;fill-rule:nonzero;fill:url(#linear1);" d="M 4.960938 6.328125 L 42.667969 6.328125 C 43.765625 6.328125 44.652344 7.167969 44.652344 8.203125 L 44.652344 40.175781 C 44.652344 41.210938 43.765625 42.050781 42.667969 42.050781 L 4.960938 42.050781 C 3.867188 42.050781 2.976562 41.210938 2.976562 40.175781 L 2.976562 8.203125 C 2.976562 7.167969 3.867188 6.328125 4.960938 6.328125 Z M 4.960938 6.328125 "/>
<path style=" stroke:none;fill-rule:nonzero;fill:url(#linear2);" d="M 42.667969 6.328125 C 43.769531 6.328125 44.652344 7.164062 44.652344 8.203125 L 44.652344 24.191406 L 23.816406 24.191406 L 23.816406 6.328125 Z M 42.667969 6.328125 "/>
<path style=" stroke:none;fill-rule:nonzero;fill:url(#linear3);" d="M 4.960938 6.328125 C 3.863281 6.328125 2.976562 7.164062 2.976562 8.203125 L 2.976562 24.191406 L 23.816406 24.191406 L 23.816406 6.328125 Z M 4.960938 6.328125 "/>
<path style=" stroke:none;fill-rule:nonzero;fill:url(#linear4);" d="M 4.960938 42.050781 C 3.863281 42.050781 2.976562 41.214844 2.976562 40.175781 L 2.976562 24.191406 L 23.816406 24.191406 L 23.816406 42.050781 Z M 4.960938 42.050781 "/>
<path style=" stroke:none;fill-rule:nonzero;fill:rgb(92.54902%,92.54902%,92.54902%);fill-opacity:0.588235;" d="M 12.984375 11.785156 C 12.597656 11.398438 11.96875 11.398438 11.582031 11.785156 C 11.191406 12.175781 11.191406 12.800781 11.582031 13.191406 L 14.386719 15.996094 L 11.582031 18.804688 C 11.191406 19.191406 11.191406 19.816406 11.582031 20.207031 C 11.96875 20.59375 12.597656 20.59375 12.984375 20.207031 L 16.492188 16.699219 C 16.515625 16.671875 16.539062 16.648438 16.5625 16.621094 C 16.878906 16.230469 16.859375 15.660156 16.492188 15.292969 Z M 12.984375 11.785156 "/>
<path style=" stroke:none;fill-rule:nonzero;fill:rgb(100%,100%,100%);fill-opacity:0.392157;" d="M 4.960938 6.328125 C 3.863281 6.328125 2.976562 7.164062 2.976562 8.203125 L 2.976562 8.699219 C 2.976562 7.660156 3.863281 6.824219 4.960938 6.824219 L 42.667969 6.824219 C 43.769531 6.824219 44.652344 7.660156 44.652344 8.699219 L 44.652344 8.203125 C 44.652344 7.164062 43.769531 6.328125 42.667969 6.328125 Z M 4.960938 6.328125 "/>
<path style=" stroke:none;fill-rule:nonzero;fill:url(#linear5);" d="M 42.667969 42.050781 C 43.769531 42.050781 44.652344 41.214844 44.652344 40.175781 L 44.652344 24.191406 L 23.816406 24.191406 L 23.816406 42.050781 Z M 42.667969 42.050781 "/>
<path style=" stroke:none;fill-rule:nonzero;fill:rgb(0%,0%,0%);fill-opacity:0.235294;" d="M 4.960938 42.066406 C 3.863281 42.066406 2.976562 41.230469 2.976562 40.191406 L 2.976562 39.695312 C 2.976562 40.734375 3.863281 41.570312 4.960938 41.570312 L 42.667969 41.570312 C 43.769531 41.570312 44.652344 40.734375 44.652344 39.695312 L 44.652344 40.191406 C 44.652344 41.230469 43.769531 42.066406 42.667969 42.066406 Z M 4.960938 42.066406 "/>
<path style=" stroke:none;fill-rule:nonzero;fill:rgb(12.941177%,12.941177%,12.941177%);fill-opacity:1;" d="M 5.953125 8.195312 C 5.339844 8.195312 4.84375 8.691406 4.84375 9.304688 L 4.84375 37.089844 C 4.84375 37.703125 5.339844 38.199219 5.953125 38.199219 L 41.675781 38.199219 C 42.289062 38.199219 42.785156 37.703125 42.785156 37.089844 L 42.785156 9.304688 C 42.785156 8.691406 42.289062 8.195312 41.675781 8.195312 Z M 5.953125 8.429688 L 41.675781 8.429688 C 42.164062 8.429688 42.550781 8.820312 42.550781 9.304688 L 42.550781 37.089844 C 42.550781 37.578125 42.164062 37.964844 41.675781 37.964844 L 5.953125 37.964844 C 5.46875 37.964844 5.078125 37.578125 5.078125 37.089844 L 5.078125 9.304688 C 5.078125 8.820312 5.46875 8.429688 5.953125 8.429688 Z M 5.953125 8.429688 "/>
<path style=" stroke:none;fill-rule:nonzero;fill:rgb(87.058824%,87.058824%,87.058824%);fill-opacity:0.705882;" d="M 5.953125 8.445312 C 5.476562 8.445312 5.09375 8.832031 5.09375 9.304688 L 5.09375 37.089844 C 5.09375 37.566406 5.476562 37.949219 5.953125 37.949219 L 41.675781 37.949219 C 42.152344 37.949219 42.539062 37.566406 42.539062 37.089844 L 42.539062 9.304688 C 42.539062 8.832031 42.152344 8.445312 41.675781 8.445312 Z M 5.953125 8.679688 L 41.675781 8.679688 C 42.023438 8.679688 42.304688 8.957031 42.304688 9.304688 L 42.304688 37.089844 C 42.304688 37.4375 42.023438 37.714844 41.675781 37.714844 L 5.953125 37.714844 C 5.605469 37.714844 5.328125 37.4375 5.328125 37.089844 L 5.328125 9.304688 C 5.328125 8.957031 5.605469 8.679688 5.953125 8.679688 Z M 5.953125 8.679688 "/>
<path style="fill:none;stroke-width:3;stroke-linecap:round;stroke-linejoin:miter;stroke:rgb(12.941177%,12.941177%,12.941177%);stroke-opacity:1;stroke-miterlimit:4;" d="M 52.911614 -147.506445 L 455.081542 -147.506445 C 466.788757 -147.506445 476.246187 -138.548967 476.246187 -127.508355 L 476.246187 213.500747 C 476.246187 224.541359 466.788757 233.498837 455.081542 233.498837 L 52.911614 233.498837 C 41.246061 233.498837 31.746968 224.541359 31.746968 213.500747 L 31.746968 -127.508355 C 31.746968 -138.548967 41.246061 -147.506445 52.911614 -147.506445 Z M 52.911614 -147.506445 " transform="matrix(0.093759,0,0,0.093759,0,20.158175)"/>
<path style=" stroke:none;fill-rule:nonzero;fill:rgb(92.54902%,92.54902%,92.54902%);fill-opacity:0.588235;" d="M 33.328125 27.917969 C 32.9375 27.53125 32.3125 27.53125 31.921875 27.917969 C 31.535156 28.308594 31.535156 28.933594 31.921875 29.320312 L 34.730469 32.128906 L 31.921875 34.933594 C 31.535156 35.324219 31.535156 35.949219 31.921875 36.339844 C 32.3125 36.726562 32.9375 36.726562 33.328125 36.339844 L 36.835938 32.828125 C 36.859375 32.804688 36.882812 32.78125 36.902344 32.753906 C 37.222656 32.363281 37.199219 31.789062 36.835938 31.425781 Z M 33.328125 27.917969 "/>
</g>
</svg>
